optimized/solid/camera.svg

<svg xmlns="http://www.w3.org/2000/svg" viewBox="0 0 20 20" fill="currentColor" aria-hidden="true">
  <path fill-rule="evenodd" d="M4 5C2.89543 5 2 5.89543 2 7V15C2 16.1046 2.89543 17 4 17H16C17.1046 17 18 16.1046 18 15V7C18 5.89543 17.1046 5 16 5H14.4142C14.149 5 13.8946 4.89464 13.7071 4.70711L12.5858 3.58579C12.2107 3.21071 11.702 3 11.1716 3H8.82843C8.29799 3 7.78929 3.21071 7.41421 3.58579L6.29289 4.70711C6.10536 4.89464 5.851 5 5.58579 5H4ZM10 14C11.6569 14 13 12.6569 13 11C13 9.34315 11.6569 8 10 8C8.34315 8 7 9.34315 7 11C7 12.6569 8.34315 14 10 14Z" clip-rule="evenodd"/>
</svg>

<svg xmlns="http://www.w3.org/2000/svg" viewBox="0 0 20 20" fill="currentColor" aria-hidden="true">
  <path fill-rule="evenodd" d="M4 5a2 2 0 00-2 2v8a2 2 0 002 2h12a2 2 0 002-2V7a2 2 0 00-2-2h-1.586a1 1 0 01-.707-.293l-1.121-1.121A2 2 0 0011.172 3H8.828a2 2 0 00-1.414.586L6.293 4.707A1 1 0 015.586 5H4zm6 9a3 3 0 100-6 3 3 0 000 6z" clip-rule="evenodd"/>
</svg>
